X:49
T:Paddy Ryan's Dream
R:reel
Z:Transcribed by Dave Marshall
M:C|
K:Aminor
|: A~E3 cABG | EGDC B,CDB,|~A,3B, CDEG | cABG ABcB |
A~E3 cABG | EGDC B,CDB,|~A,3B, CDEG | cABG A2cB :|
|: Aaa^g aecA|Ggg^f gedB|Aaa^g aefd|ecdB cABG|
Aaa^g aecA|Ggg^f gedB|AcBd cdef|edcB A2cB :|
